X:1
T:April Waltz
C:Traditional
M:3/4
L:1/4
Q:1/4=116
K:D
D/2E/2|F3/2F/2E/2D/2|E/2F/2D/2E/2F/2A/2|b3/2d/2F/2E/2|dEE/2F/2|D3/2F/2E/2D/2|B/2D/2A/2B/2D/2E/2|F3/2F/2E/2D/2|E2D|]
